resources/svg/raspberry.svg

<svg xmlns="http://www.w3.org/2000/svg" viewBox="0 0 24 24" fill="currentColor"><path fill="currentColor" fill-rule="evenodd" d="M8.08672829,0.000264753559 C7.96534395,0.00402127507 7.836217,0.0481047507 7.68796657,0.165057787 C7.32481529,0.0250230129 6.97132662,-0.0244169841 6.65646751,0.260682129 C6.17026232,0.197621263 6.01323276,0.328417777 5.89352494,0.480410812 C5.78679799,0.478115159 5.09388673,0.371256036 4.77657197,0.844591729 C3.97915982,0.750226517 3.7280781,1.31407319 4.01363634,1.83946446 C3.85077722,2.09159662 3.68159462,2.33945747 4.06246416,2.82009742 C3.9277233,3.08780523 4.01160503,3.37809391 4.32898241,3.72952345 C4.24521198,4.10585734 4.41005371,4.37099819 4.70536499,4.57791992 C4.65013021,5.09291119 5.1765302,5.39291118 5.3340328,5.4995616 C5.3945128,5.79964506 5.52094757,6.08354835 6.12342406,6.24011878 C6.22279101,6.6872631 6.58455099,6.76475179 6.93518749,6.85861613 C5.77626582,7.53228566 4.78203284,8.41722473 4.78878066,10.5919375 L4.61991804,10.8950888 C3.29104858,11.703207 2.09522952,14.3014816 3.96480852,16.4126885 C4.08692329,17.0735093 4.29107632,17.5474988 4.47343457,18.072856 C4.74617195,20.1897463 6.52675621,21.1823654 6.99623096,21.2995897 C7.68421005,21.8236175 8.41761523,22.3205844 9.40915603,22.668814 C10.3438551,23.6328278 11.3552638,23.9999583 12.4141375,24 C13.4730105,24.0000348 14.4844191,23.6328278 15.4191182,22.668814 C16.410659,22.3205844 17.1440781,21.8236175 17.8320432,21.2995897 C18.301518,21.1823654 20.0821022,20.1897463 20.3548396,18.072856 C20.5371909,17.5474988 20.741337,17.0735093 20.8634726,16.4126885 C22.7330377,14.3014816 21.5372187,11.703207 20.2083492,10.8950888 L20.0394935,10.5919375 C20.0462414,8.41722473 19.0520014,7.53228566 17.8930867,6.85861613 C18.2437093,6.76475179 18.6054832,6.6872631 18.7048571,6.24011878 C19.3073266,6.08354835 19.4337614,5.79964506 19.4942414,5.4995616 C19.651744,5.39291118 20.1781509,5.09291119 20.1229092,4.57791992 C20.4182135,4.37099819 20.5830553,4.10585734 20.4992918,3.72952345 C20.8166692,3.37809391 20.9005509,3.08780523 20.765817,2.82009742 C21.1466865,2.33945747 20.9775039,2.09159662 20.8146448,1.83946446 C21.1001891,1.31407319 20.8491213,0.750226517 20.0516953,0.844591729 C19.7343944,0.371256036 19.0414832,0.478129073 18.9347562,0.480410812 C18.8150414,0.328417777 18.6580189,0.197621263 18.1718067,0.260682129 C17.8569406,-0.0244169841 17.5034589,0.0250230129 17.1403076,0.165057787 C16.9920572,0.0481047507 16.8629164,0.00404214463 16.7415459,0.000264753559 C16.5099007,-0.00692133296 16.312572,0.133996919 16.0986381,0.201683872 C15.5762243,0.0310751865 15.4578869,0.26317952 15.2014208,0.358337775 C14.6320504,0.237996913 14.45948,0.500981245 14.186193,0.777454341 L13.8667774,0.771332603 C13.0081548,1.27731493 12.5837723,2.30648356 12.4141375,2.30648356 C12.244502,2.30648356 11.8201194,1.27731493 10.9614968,0.771332603 L10.6420812,0.777454341 C10.3687873,0.500981245 10.1962238,0.237996913 9.62685341,0.358337775 C9.37038734,0.26317952 9.25204996,0.0310751865 8.72963608,0.201683872 C8.51569522,0.133996919 8.31836654,-0.00692133296 8.08672829,0.000264753559 L8.08672829,0.000264753559 Z M8.11723959,0.608584717 C8.55334391,0.770163907 8.78002912,0.978497808 9.01650215,1.18435494 C9.09674562,1.07614653 9.21854039,0.995833459 9.06939258,0.734720431 C9.37908995,0.913196942 9.61296124,1.12368739 9.78554558,1.3593184 C9.97706557,1.2373358 9.89847774,1.07156913 9.89947948,0.917836942 C10.2213229,1.17960363 10.4266934,1.45753057 10.676662,1.72960012 C10.7270273,1.6928836 10.7699838,1.56820187 10.8089055,1.3715271 C11.5766551,2.11633401 12.661247,3.99280691 11.0876325,4.73661208 C9.74914906,3.63272346 8.15102046,2.83019829 6.37977187,2.2280627 C8.65689869,3.40221217 9.98173339,4.35076863 10.7071873,5.15979119 C10.3355282,6.64922484 8.39685001,6.7193257 7.68796657,6.67753788 C7.83314917,6.60997615 7.95432482,6.52719354 7.99721177,6.40288051 C7.81933352,6.27641095 7.18837008,6.38981616 6.74801533,6.14246313 C6.91716314,6.10741618 6.99650922,6.0740527 7.07557009,5.94918245 C6.65961881,5.81650767 6.21198753,5.70103637 5.94845364,5.48123813 C6.09067971,5.48297726 6.22252666,5.51436508 6.40825882,5.3856277 C6.03566059,5.1847651 5.63886757,5.02516859 5.32996324,4.71830252 C5.52261714,4.71357209 5.72937191,4.7159373 5.78976843,4.64506426 C5.44871801,4.43378776 5.16123977,4.19811473 4.92306239,3.941113 C5.19265542,3.97365561 5.30546933,3.94744344 5.37065193,3.90041735 C5.11287803,3.63638259 4.78767457,3.41396173 4.63212674,3.08865392 C4.8322937,3.15760001 5.01483282,3.18202435 5.14686064,3.08051479 C5.05925021,2.88290785 4.68341021,2.76718612 4.46732675,2.30536356 C4.67805369,2.32579487 4.90277718,2.35134617 4.94747283,2.30536356 C4.84966414,1.90687315 4.68279804,1.68304708 4.51819283,1.45086622 C4.96919109,1.44418796 5.65184844,1.45239666 5.62089887,1.41425405 L5.34217193,1.12942652 C5.7827006,1.01081085 6.23361536,1.14928711 6.56084316,1.25149232 C6.70777881,1.1355413 6.55701708,0.988174329 6.37774057,0.838483903 C6.75211967,0.888466509 7.09125704,0.974170851 7.39702398,1.09279348 C7.5604118,0.945287375 7.28933008,0.798831731 7.15898574,0.651304714 C7.73737874,0.76107869 7.98362569,0.914003898 8.22711089,1.06838305 C8.40385523,0.899019551 8.23647437,0.756063038 8.11723959,0.608584717 L8.11723959,0.608584717 Z M16.7110277,0.608584717 C16.5917929,0.756063038 16.4244259,0.899019551 16.6011633,1.06838305 C16.8446485,0.914003898 17.0908955,0.76107869 17.6692815,0.651304714 C17.5389511,0.798831731 17.2678624,0.945287375 17.4312433,1.09279348 C17.7370172,0.974170851 18.0761476,0.888466509 18.4505336,0.838483903 C18.271271,0.988174329 18.1204954,1.1355413 18.267438,1.25149232 C18.5946658,1.14928711 19.0455736,1.01081085 19.4861092,1.12942652 L19.2073753,1.41425405 C19.1764258,1.45236188 19.8590762,1.44422275 20.3100883,1.45086622 C20.1454692,1.68304708 19.9786101,1.90687315 19.8808014,2.30536356 C19.925497,2.35134617 20.1502205,2.32579487 20.3609474,2.30536356 C20.144864,2.76718612 19.769024,2.88290785 19.6814205,3.08051479 C19.8134414,3.18202435 19.9959805,3.15760001 20.1961544,3.08865392 C20.0405927,3.41396173 19.7154031,3.63638259 19.4576223,3.90041735 C19.5228049,3.94743648 19.6356188,3.97365561 19.9052118,3.941113 C19.6670414,4.19811473 19.3795562,4.43378776 19.0385127,4.64506426 C19.0989023,4.71589556 19.305664,4.71355122 19.498311,4.71830252 C19.1894136,5.02516859 18.7926206,5.1847651 18.4200223,5.3856277 C18.6057545,5.51436508 18.7376015,5.48299813 18.8798206,5.48123813 C18.6162867,5.70103637 18.1686554,5.81650767 17.7527041,5.94918245 C17.831765,6.0740527 17.911118,6.10741618 18.0802589,6.14246313 C17.6399041,6.38981616 17.0089337,6.27641095 16.8310624,6.40288051 C16.8739494,6.52719354 16.995125,6.60997615 17.1403076,6.67753788 C16.4314312,6.7193257 14.4927461,6.64922484 14.121087,5.15979119 C14.8465339,4.35076863 16.1713755,3.40221217 18.4485023,2.2280627 C16.6772538,2.83019829 15.0791182,3.63272346 13.7406418,4.73661208 C12.1670203,3.99280691 13.2516053,2.11633401 14.0193687,1.3715271 C14.0582835,1.56820187 14.101247,1.6928836 14.1516122,1.72960012 C14.4015878,1.45753057 14.6069513,1.17960363 14.9287947,0.917836942 C14.9297686,1.07156913 14.8512017,1.2373358 15.0427286,1.3593184 C15.2153199,1.12368739 15.4491843,0.913196942 15.7588816,0.734720431 C15.6097269,0.995833459 15.7315216,1.07614653 15.8117721,1.18435494 C16.0482451,0.978497808 16.2749233,0.770163907 16.7110277,0.608584717 L16.7110277,0.608584717 Z M12.4141375,6.77007353 C13.7727322,6.77007353 14.9056504,7.69321086 14.9084539,8.23597257 C14.9120017,8.91685587 13.9141096,9.61605583 12.4324471,9.63369061 C12.4262557,9.63371843 12.4203218,9.63366278 12.4141375,9.63369061 C12.4079462,9.63366278 12.4019907,9.63371843 12.3958272,9.63369061 C10.9141577,9.61605583 9.91632122,8.91685587 9.91982035,8.23597257 C9.92267253,7.69321086 11.0555421,6.77007353 12.4141375,6.77007353 L12.4141375,6.77007353 Z M8.60146217,7.21668915 C8.62928826,7.2159935 8.65689869,7.2159935 8.68487086,7.21668915 C8.90498911,7.2178022 9.13188996,7.23677263 9.36236647,7.27568741 C10.1386029,7.40612218 5.64137887,11.3335235 5.57207105,10.4576627 C5.51003975,8.4547969 6.85024141,7.24467524 8.60146217,7.21668915 L8.60146217,7.21668915 Z M16.1434033,7.21668915 C16.1713755,7.2159935 16.198986,7.2159935 16.226812,7.21668915 C17.9780328,7.24467524 19.3182414,8.4547969 19.2562032,10.4576627 C19.1868953,11.3335235 14.6896643,7.40612218 15.4659077,7.27568741 C15.6963773,7.23677263 15.9232851,7.21785785 16.1434033,7.21668915 L16.1434033,7.21668915 Z M9.31760821,9.71710625 C9.57666211,9.71515843 9.83913166,9.75334277 10.0947908,9.83917233 C11.4583247,10.2968767 12.1474377,11.8915618 11.6349229,13.3995756 C11.1223943,14.9075685 9.60082211,15.7595407 8.23728132,15.3018364 C6.87374054,14.8441251 6.18464145,13.24944 6.6971562,11.74144 C7.11358052,10.5161879 8.19509698,9.72545408 9.31760821,9.71710625 L9.31760821,9.71710625 Z M15.510666,9.71710625 C16.6331842,9.72545408 17.7146937,10.5161879 18.131125,11.74144 C18.6436328,13.24944 17.9545337,14.8441251 16.5909929,15.3018364 C15.2274591,15.7595407 13.70588,14.9075685 13.1933514,13.3995756 C12.6808366,11.8915618 13.3699496,10.2968767 14.7334834,9.83917233 C14.9891426,9.75334277 15.2516191,9.71521408 15.510666,9.71710625 L15.510666,9.71710625 Z M5.32996324,11.3996453 C6.39246752,11.4152557 5.60278409,16.4517006 4.64025891,16.0240902 C3.54755637,15.145252 3.19627293,12.5727583 5.22213716,11.4159235 C5.25074933,11.4082505 5.27710759,11.4032627 5.30351454,11.4016835 C5.31211976,11.4009879 5.32159454,11.399527 5.32996324,11.3996662 L5.32996324,11.3996453 Z M19.498311,11.3996453 C19.5066797,11.3996453 19.5161475,11.4010366 19.5247597,11.4016627 C19.5511736,11.4031931 19.5775318,11.4082714 19.6061371,11.4159166 C21.6319943,12.5727443 21.2807039,15.1452381 20.1880153,16.0240833 C19.2254832,16.4516867 18.4358067,11.4152418 19.498311,11.3996383 L19.498311,11.3996453 Z M12.4141298,14.8822955 C13.1302557,14.8822955 13.8011496,15.1418364 14.2879252,15.5826085 C14.80716,16.0527511 15.1097686,16.7222954 15.1057965,17.3933145 C15.1057965,18.0521743 14.8114591,18.7056142 14.3062348,19.1714925 C13.8097478,19.6292942 13.1160435,19.9007933 12.4141375,19.9100176 C11.7122238,19.9007933 11.0185333,19.6292942 10.5220394,19.1714925 C10.0168151,18.7056142 9.72247776,18.0521743 9.72247776,17.3933145 C9.71851254,16.7222954 10.0211073,16.0527511 10.540349,15.5826085 C11.0271177,15.1418364 11.6980047,14.8822955 12.4141298,14.8822955 L12.4141298,14.8822955 Z M6.14784145,16.1990606 C6.8512988,16.184598 7.71643962,16.739951 8.41631436,17.5520136 C9.19689866,18.4924177 9.55193863,20.1452246 8.90053694,20.6322576 C8.28421002,21.0040767 6.78638054,20.8502124 5.72262408,19.3220385 C5.00519108,18.0397082 5.09887456,16.734998 5.60258931,16.351645 C5.76736147,16.251318 5.9508745,16.2030676 6.14784145,16.1990606 L6.14784145,16.1990606 Z M18.6132954,16.1990606 C18.635591,16.198365 18.6584502,16.198365 18.6804397,16.1990606 C18.8774067,16.2030259 19.0609127,16.251318 19.2256919,16.351645 C19.7294066,16.734998 19.8230831,18.0397082 19.1056571,19.3220385 C18.0418798,20.8502124 16.5440503,21.0040767 15.9277373,20.6322576 C15.2763356,20.1452246 15.6313547,18.4924177 16.4119599,17.5520136 C17.0899563,16.7653284 17.9223389,16.2192554 18.6132954,16.1990606 L18.6132954,16.1990606 Z M12.4141375,20.7034715 C13.5040226,20.691068 15.1237165,21.1498297 15.1037652,21.7349775 C15.1211634,22.1401114 13.7921409,23.3091896 12.4365097,23.2506853 C12.4290036,23.2506853 12.4216366,23.2506296 12.4141375,23.2506853 C12.4066307,23.2506296 12.3992568,23.2506853 12.3917646,23.2506853 C11.0361264,23.3091896 9.70711776,22.1401114 9.72450906,21.7349775 C9.70455776,21.1498297 11.3242516,20.691068 12.4141375,20.7034715 L12.4141375,20.7034715 Z"/></svg>

<svg viewBox="0 0 24 24"><path fill="currentColor" fill-rule="evenodd" d="M8.087 0a.667.667 0 0 0-.399.165c-.363-.14-.717-.19-1.032.096c-.486-.063-.643.067-.762.22c-.107-.003-.8-.11-1.117.364c-.798-.095-1.049.47-.763.994c-.163.253-.332.5.048.981c-.134.268-.05.558.267.91c-.084.376.081.641.376.848c-.055.515.472.815.629.922c.06.3.187.584.79.74c.099.447.46.525.811.619c-1.159.673-2.153 1.558-2.146 3.733l-.17.303c-1.328.808-2.524 3.406-.654 5.518c.122.66.326 1.134.508 1.66c.273 2.117 2.054 3.11 2.523 3.227c.688.524 1.422 1.02 2.413 1.369c.935.964 1.946 1.331 3.005 1.331s2.07-.367 3.005-1.331c.992-.348 1.725-.845 2.413-1.37c.47-.117 2.25-1.11 2.523-3.226c.182-.526.386-1 .508-1.66c1.87-2.112.674-4.71-.655-5.518l-.169-.303c.007-2.175-.987-3.06-2.146-3.733c.35-.094.712-.172.812-.619c.602-.156.729-.44.79-.74c.157-.107.683-.407.628-.922c.295-.207.46-.472.376-.848c.318-.352.402-.642.267-.91c.38-.48.212-.728.049-.98c.285-.526.034-1.09-.763-.995c-.318-.474-1.01-.367-1.117-.365c-.12-.152-.277-.282-.763-.22c-.315-.284-.669-.235-1.032-.095A.667.667 0 0 0 16.742 0c-.232-.007-.43.134-.643.202c-.523-.17-.641.061-.898.156c-.569-.12-.742.143-1.015.42l-.32-.007c-.858.506-1.282 1.535-1.452 1.535c-.17 0-.594-1.029-1.453-1.535l-.319.006C10.37.501 10.196.238 9.627.358C9.37.263 9.252.031 8.73.202C8.516.134 8.318-.007 8.087 0zm.03.609c.436.161.663.37.9.575c.08-.108.202-.188.052-.45c.31.18.544.39.717.625c.191-.122.112-.287.113-.441c.322.262.528.54.778.812c.05-.037.093-.162.132-.358c.768.744 1.852 2.62.279 3.365C9.749 3.633 8.15 2.83 6.38 2.228c2.277 1.174 3.602 2.123 4.327 2.932c-.371 1.49-2.31 1.56-3.019 1.518c.145-.068.266-.15.31-.275c-.179-.127-.81-.013-1.25-.26c.17-.036.249-.069.328-.194c-.416-.132-.864-.248-1.128-.468c.143.002.275.033.46-.095c-.372-.201-.77-.36-1.078-.668c.193-.004.4-.002.46-.073a4.155 4.155 0 0 1-.867-.704c.27.033.382.006.448-.04c-.258-.265-.583-.487-.739-.812c.2.069.383.093.515-.008c-.088-.198-.464-.314-.68-.776c.211.02.436.046.48 0c-.097-.398-.264-.622-.429-.854c.451-.007 1.134.001 1.103-.037l-.279-.285c.44-.118.892.02 1.219.122c.147-.115-.004-.263-.183-.413c.374.05.713.136 1.019.255C7.56.945 7.289.799 7.159.65c.578.11.825.263 1.068.417c.177-.169.01-.312-.11-.46zm8.594 0c-.12.147-.287.29-.11.46c.244-.155.49-.308 1.068-.418c-.13.148-.401.294-.238.442a4.431 4.431 0 0 1 1.02-.255c-.18.15-.33.298-.184.413c.328-.102.779-.24 1.22-.122l-.28.285c-.03.038.652.03 1.103.037c-.165.232-.331.456-.43.854c.045.046.27.02.48 0c-.215.462-.591.578-.679.776c.132.101.315.077.515.008c-.155.325-.48.547-.738.811c.065.047.178.074.447.041a4.155 4.155 0 0 1-.866.704c.06.07.267.069.46.073c-.31.307-.706.467-1.079.668c.186.128.318.097.46.095c-.264.22-.711.336-1.127.468c.079.125.158.158.327.193c-.44.248-1.071.134-1.249.26c.043.125.164.208.31.276c-.71.041-2.648-.029-3.02-1.518c.726-.81 2.05-1.758 4.328-2.932c-1.772.602-3.37 1.405-4.708 2.509c-1.574-.744-.49-2.62.278-3.365c.04.196.082.32.133.358c.25-.272.455-.55.777-.812c0 .154-.078.32.114.441c.172-.235.406-.446.716-.624c-.15.26-.027.341.053.45c.236-.207.463-.415.899-.576zM12.414 6.77c1.359 0 2.492.923 2.494 1.466c.004.68-.994 1.38-2.476 1.398h-.036c-1.482-.018-2.48-.717-2.476-1.398c.003-.543 1.136-1.466 2.494-1.466zm-3.813.447h.084c.22 0 .447.02.677.059c.777.13-3.72 4.058-3.79 3.182c-.062-2.003 1.278-3.213 3.03-3.241zm7.542 0h.084c1.751.028 3.091 1.238 3.03 3.24c-.07.877-4.567-3.05-3.791-3.181c.23-.04.457-.058.677-.06zm-6.825 2.5c.259-.002.521.036.777.122c1.363.458 2.052 2.053 1.54 3.56c-.513 1.509-2.034 2.36-3.398 1.903c-1.363-.458-2.052-2.053-1.54-3.56c.417-1.226 1.498-2.017 2.62-2.025zm6.193 0c1.122.008 2.204.8 2.62 2.024c.513 1.508-.176 3.103-1.54 3.56c-1.364.459-2.885-.393-3.398-1.901c-.512-1.508.177-3.103 1.54-3.56c.256-.087.519-.125.778-.123zM5.33 11.4c1.062.015.273 5.052-.69 4.624c-1.092-.879-1.444-3.451.582-4.608a.405.405 0 0 1 .082-.014l.026-.002zm14.168 0l.027.002a.404.404 0 0 1 .081.014c2.026 1.157 1.675 3.73.582 4.608c-.963.428-1.752-4.609-.69-4.624zm-7.084 3.482c.716 0 1.387.26 1.874.7c.52.47.822 1.14.818 1.811c0 .66-.295 1.313-.8 1.778c-.496.458-1.19.73-1.892.739a2.884 2.884 0 0 1-1.892-.739a2.448 2.448 0 0 1-.8-1.778a2.456 2.456 0 0 1 .818-1.81c.487-.441 1.158-.7 1.874-.7zM6.148 16.2c.703-.014 1.568.541 2.268 1.353c.78.94 1.136 2.593.485 3.08c-.617.372-2.115.218-3.178-1.31c-.718-1.282-.624-2.587-.12-2.97c.164-.1.348-.149.545-.153zm12.465 0h.067c.197.004.38.052.546.153c.503.383.597 1.688-.12 2.97c-1.064 1.528-2.562 1.682-3.178 1.31c-.652-.487-.297-2.14.484-3.08c.678-.787 1.51-1.333 2.201-1.353zm-6.199 4.504c1.09-.012 2.71.447 2.69 1.032c.017.405-1.312 1.574-2.667 1.516h-.045c-1.356.058-2.685-1.11-2.667-1.516c-.02-.585 1.6-1.044 2.69-1.032z"/></svg>
